!!!!SEGMENT: pl-sa--575-a-ix-55--004_anonim--trio.krn
!!!cenid: 18xx:618
!!!COM: Anonim
!!!COM-rismID: pe30004985
!!!CDT:
!!!CNT:
!!!OTL: Trio
!!!PDT:
!!!AGN: Secular
!!!SMS-siglum: PL-SA
!!!SMS-shelfmark: 575/A IX 55
!!!SMS-shelfwork: 004 W
!!!SMS-variant:
!!!SMS-altvar:
!!!NIFC-rismSourceID: 1001109824
!!!NIFC-rismChildID: 1001109824
!!!NIFC-islandoraID: none
!!!URL-pdf-islandora:
!!!URL-scan: https://bc.bdsandomierz.pl/dlibra/publication/1381/edition/1349/content @EN{Scan in the Sandomierz Diocese Digital Library} @PL{Skany w portalu Cyfrowa Biblioteka Diecezjalna w Sandomierzu}
!!!ONB-nifc: Str. 3
!!!AIN: 1 empty
!!!key:
**kern	**kern
*part1	*part1
*staff2	*staff1
*Iempty	*Ipiano
*	*I"Piano
*clefF4	*clefG2
*k[b-e-a-]	*k[b-e-a-]
*E-:	*E-:
*M3/4	*M3/4
*>[A,A,B,B,A,A,B,B]	*>[A,A,B,B,A,A,B,B]
=1	=1
*>A	*>A
*	*2\right
*clefG2	*
!	!LO:TX:a:Bi:t=Trio&colon;:problem:problem='Trio' znajduje się przed systemem
8gL 8e-/	2bb- 2gg\
8B-/J	.
*rep	*
8gL 8e-/	.
8B-/J	.
*Xrep	*
8fL 8d/	8aa-L 8ff\
8B-/J	8ff\J
=2	=2
8gL 8e-/	4.gg 4.ee-\
8B-/J	.
*rep	*
8gL 8e-/	.
8B-/J	8aa-L 8ff\
*Xrep	*
8fL 8d/	8ff\
8B-/J	8dd\J
=3	=3
8e-L 8G/	8ee-T>\L
8e- 8G/	8ee-\
8f 8B-/	8ff\
8f 8B-/	8ff\
8g 8e-/	8gg\
8gJ 8e-/	8gg\J
=4	=4
.	8qee-/
8gL 8e-/	4bb-\
8B-/J	.
*rep	*
8gL 8e-/	16bb-\LL
.	16aa-\
8B-/J	16gg\
.	16aa-\JJ
*Xrep	*
*rep	*
8gL 8e-/	8gg\L
8B-/J	8ff\J
*Xrep	*
=5	=5
8gL 8e-/	4.bb- 4.gg\
8B-/J	.
*rep	*
8gL 8e-/	.
8B-/J	16cccLL 16aa-\
.	16bb-JJ 16gg\
*Xrep	*
8fL 8d/	8aa-L 8ff\
8B-/J	8ff\J
=6	=6
8gL 8e-/	4.gg 4.ee-\
8B-/J	.
*rep	*
8gL 8e-/	.
8B-/J	8aa-\L
*Xrep	*
8fL 8d/	8ff\
8B-/J	8dd\J
=7	=7
8e-L 8G/	8ee-\L
8e- 8G/	8ee-\
8f 8B-/	8ff\
8fJ 8B-/	8ff\
4g 4e-/	8gg\
.	8gg\J
=8	=8
4f 4B-/	16ff\LL
.	16aa-\
.	16dd\
.	16ff\JJ
8r	4ff\
8f 8B-/	.
4e- 4G/	8ee-\
.	8r
=9:|!|:	=9:|!|:
*>B	*>B
!LO:CL:ed	!
*clefF4	*
.	16qqaan/
16BB-\LL	8bb-\L
16F\	.
16D\	8b-\J
16F\JJ	.
*rep	*
16BB-\LL	16b-\LL
16F\	16cc\
16D\	16dd\
16F\JJ	16ee-\JJ
*Xrep	*
*rep	*
16BB-\LL	16ff\LL
16F\	16gg\
16D\	16aa-X\
16F\JJ	16ff\JJ
*Xrep	*
=10	=10
.	16qqff#X/
16BB-\LL	8gg\L
16G\	.
16E-\	8ee-\J
16G\JJ	.
*rep	*
16BB-\LL	16ee-\LL
16G\	16ff#y\
16E-\	16gg\
16G\JJ	16aa-\JJ
*Xrep	*
*rep	*
16BB-\LL	16aan\LL
16G\	16bb-\
16E-\	16ccc\
16G\JJ	16bb-\JJ
*Xrep	*
=11	=11
.	16qqaan/
!	!LO:TX:a:t=P:problem=mixed beam
16BB-\LL	8bb-\L
16F\	.
16D\	8b-/J
16F\JJ	.
*rep	*
16BB-\LL	16b-\LL
16F\	16cc\
16D\	16dd\
16F\JJ	16ee-\JJ
*Xrep	*
*rep	*
16BB-\LL	16ff\LL
16F\	16gg\
16D\	16aany\
16F\JJ	16ff\JJ
*Xrep	*
=12	=12
8E-\L	8gg\L
8G\	8bb-J 8gg\
8A-\	8aa-L 8ff\
8An\J	8ggJ 8ee-\
4B-\	4ff 4dd\
!	!LO:TX:b:Bi:t=Da Capo Trio&colon;
==	==
*-	*-
!!!system-decoration: {(s1,s2)}
!!!RDF**kern: > = above
!!!RDF**kern: < = below
!!!EED: Wojciech Jakubiak-Danek
!!!EEV: 2020-12-10
!!!ENC: Tomasz Grochalski
!!!END: 2020-06-19
!!!YEC: Copyright 2022 Narodowy Instytut Fryderyka Chopina (https://polishscores.org)
!!!YEM: License CC-BY-4.0 (https://creativecommons.org/licenses/by/4.0)
